svg/icon/trig.svg

<svg height="32" viewBox="0 0 32 32" width="32" xmlns="http://www.w3.org/2000/svg" xmlns:xlink="http://www.w3.org/1999/xlink"><defs><linearGradient id="a" x1="50%" x2="50%" y1="0%" y2="100%"><stop offset="0" stop-color="#fff" stop-opacity=".5"/><stop offset="1" stop-opacity=".5"/></linearGradient><circle id="b" cx="16" cy="15" r="15"/><filter id="c" height="111.7%" width="111.7%" x="-5.8%" y="-4.2%"><feOffset dy=".5" in="SourceAlpha" result="shadowOffsetOuter1"/><feGaussianBlur in="shadowOffsetOuter1" result="shadowBlurOuter1" stdDeviation=".5"/><feComposite in="shadowBlurOuter1" in2="SourceAlpha" operator="out" result="shadowBlurOuter1"/><feColorMatrix in="shadowBlurOuter1" values="0 0 0 0 0   0 0 0 0 0   0 0 0 0 0  0 0 0 0.199473505 0"/></filter><path id="d" d="m10.1233647 6h11.7735039s.3125709 1.55440415 1.9796157 1.65803109c0 0 5.5220858 12.84974091-7.9184628 18.34196891 0 0-12.39864567-3.9378238-8.02265309-18.23834197 0 0 1.8754254-.10362694 2.18799629-1.76165803zm11.1488237 1.02264249h-10.5195142l-.0135747.22462138c-.0879668.48852232-.332855.82933904-.692219 1.05905493-.16184609.10345674-.33693146.17739416-.51204917.22601907-.0609939.01693617-.11721008.02941871-.16691886.03808629-.02788772.0048627-.04598173.00727004-.05255864.00790728l-.18479855.01790517-.05187595.17731526c-.96832782 3.30980493-1.00157873 6.17089333-.23854532 8.61095553.625522 2.000322 1.75874059 3.6395142 3.25176829 4.95022.8260594.7251848 1.7104773 1.3043183 2.5953255 1.7521473.3102777.1570342.5988495.2865775.8585294.3904201.1576032.0630234.2718407.1038516.335531.1242466l.0978567.0313357.0944473-.0403795c3.706248-1.5845486 5.9482484-3.978585 6.9525029-6.9598122.8289839-2.4609198.7557886-5.0794302.1365959-7.5594644-.102245-.40951878-.211902-.77981476-.3217649-1.10477998-.0386445-.11430709-.0746341-.21496213-.1070702-.30119923-.0197971-.05263406-.0342401-.08930429-.0424312-.10924348l-.0648181-.15778272-.1710023-.01118247c-.4852119-.03172982-.7949068-.23030239-.9860059-.54826351-.0743571-.12371932-.1255485-.25824895-.1570061-.39295627-.0185374-.07938004-.0261309-.13845983-.0275-.16596194zm-10.0445566.5453886c6.3670518.00140829 9.5506601.00246549 9.550825.0031716.0435642.18654952.1146179.37327674.2204687.54939714.2555074.42512718.6665613.71252434 1.2423411.79430476.0247205.06742089.0514932.14332848.0799019.22735888.1052837.31142027.2107733.66764369.3093318 1.06239713.5962272 2.3880512.6666299 4.9066559-.1243526 7.2547645-.9455396 2.8069266-3.0463106 5.0666154-6.5515593 6.5899657-.0597222-.0216382-.1280305-.0476274-.2042744-.0781163-.2450824-.0980052-.5189601-.2209522-.8143972-.3704754-.8457657-.4280491-1.6919616-.9821541-2.4811417-1.674963-1.4212347-1.2476799-2.4970427-2.8038281-3.09102844-4.7033021-.71743785-2.2942547-.69869382-4.9928699.1944455-8.13366539.03813892-.00855545.07964982-.01888974.12408973-.03122937.22481102-.06242323.44965441-.15737312.66107501-.29251936.4247176-.27149176.7364637-.66697291.8842749-1.19708879zm7.3611948 5.58222801h-.3042357c.0302152-.6082902-.1041903-1.9326425-1.7493552-2.3005182-.4779765-.114191-.9787155-.0911939-1.4440775.0663213-.6418123.2279793-1.4086529.8010362-1.4367842 2.2341969h-.2229673c-.4742521.0011393-.8584244.3832344-.85957.8549222v3.5751296c.0011456.4716878.3853179.8537829.85957.8549223h5.1574199c.474252-.0011394.8584244-.3832345.8595699-.8549223v-3.5751296c-.0011455-.4716878-.3853179-.8537829-.8595699-.8549222zm-2.0056633 4.0414507h-1.1460933l.3031938-1.5067357c-.2943355-.1271796-.4585163-.4423591-.3932145-.7548577.0653017-.3124985.3421556-.5365105.6630673-.5365105s.5977656.224012.6630674.5365105c.0653018.3124986-.0988791.6276781-.3932145.7548577zm-2.1879963-4.0414507c.0281314-.4683938.2260929-1.5761658 1.4586642-1.6580311 0 0 1.6264106-.0891192 1.5972373 1.6580311z"/><filter id="e" height="117.5%" width="119.4%" x="-9.7%" y="-6.2%"><feOffset dy=".5" in="SourceAlpha" result="shadowOffsetOuter1"/><feGaussianBlur in="shadowOffsetOuter1" result="shadowBlurOuter1" stdDeviation=".5"/><feColorMatrix in="shadowBlurOuter1" values="0 0 0 0 0   0 0 0 0 0   0 0 0 0 0  0 0 0 0.204257246 0"/></filter></defs><g fill="none" fill-rule="evenodd"><use fill="#000" filter="url(#c)" xlink:href="#b"/><use fill="#30c0f2" xlink:href="#b"/><use fill="url(#a)" xlink:href="#b"/><circle cx="16" cy="15" r="14.5" stroke="#000" stroke-opacity=".097"/><g fill-rule="nonzero"><use fill="#000" filter="url(#e)" xlink:href="#d"/><use fill="#fff" fill-rule="evenodd" xlink:href="#d"/></g></g></svg>

<svg xmlns="http://www.w3.org/2000/svg" xmlns:xlink="http://www.w3.org/1999/xlink" width="32" height="32" viewBox="0 0 32 32">
  <defs>
    <linearGradient id="trig-c" x1="50%" x2="50%" y1="0%" y2="100%">
      <stop offset="0%" stop-color="#FFF" stop-opacity=".5"/>
      <stop offset="100%" stop-opacity=".5"/>
    </linearGradient>
    <circle id="trig-b" cx="16" cy="15" r="15"/>
    <filter id="trig-a" width="111.7%" height="111.7%" x="-5.8%" y="-4.2%" filterUnits="objectBoundingBox">
      <feOffset dy=".5" in="SourceAlpha" result="shadowOffsetOuter1"/>
      <feGaussianBlur in="shadowOffsetOuter1" result="shadowBlurOuter1" stdDeviation=".5"/>
      <feComposite in="shadowBlurOuter1" in2="SourceAlpha" operator="out" result="shadowBlurOuter1"/>
      <feColorMatrix in="shadowBlurOuter1" values="0 0 0 0 0   0 0 0 0 0   0 0 0 0 0  0 0 0 0.199473505 0"/>
    </filter>
    <path id="trig-e" d="M10.1233647,6 L21.8968686,6 C21.8968686,6 22.2094395,7.55440415 23.8764843,7.65803109 C23.8764843,7.65803109 29.3985701,20.507772 15.9580215,26 C15.9580215,26 3.55937583,22.0621762 7.93536841,7.76165803 C7.93536841,7.76165803 9.81079381,7.65803109 10.1233647,6 Z M21.2721884,7.02264249 L10.7526742,7.02264249 L10.7390995,7.24726387 C10.6511327,7.73578619 10.4062445,8.07660291 10.0468805,8.3063188 C9.88503441,8.40977554 9.70994904,8.48371296 9.53483133,8.53233787 C9.47383743,8.54927404 9.41762125,8.56175658 9.36791247,8.57042416 C9.34002475,8.57528686 9.32193074,8.5776942 9.31535383,8.57833144 L9.13055528,8.59623661 L9.07867933,8.77355187 C8.11035151,12.0833568 8.0771006,14.9444452 8.84013401,17.3845074 C9.46565601,19.3848294 10.5988746,21.0240216 12.0919023,22.3347274 C12.9179617,23.0599122 13.8023796,23.6390457 14.6872278,24.0868747 C14.9975055,24.2439089 15.2860773,24.3734522 15.5457572,24.4772948 C15.7033604,24.5403182 15.8175979,24.5811464 15.8812882,24.6015414 L15.9791449,24.6328771 L16.0735922,24.5924976 C19.7798402,23.007949 22.0218406,20.6139126 23.0260951,17.6326854 C23.855079,15.1717656 23.7818837,12.5532552 23.162691,10.073221 C23.060446,9.66370222 22.950789,9.29340624 22.8409261,8.96844102 C22.8022816,8.85413393 22.766292,8.75347889 22.7338559,8.66724179 C22.7140588,8.61460773 22.6996158,8.5779375 22.6914247,8.55799831 L22.6266066,8.40021559 L22.4556043,8.38903312 C21.9703924,8.3573033 21.6606975,8.15873073 21.4695984,7.84076961 C21.3952413,7.71705029 21.3440499,7.58252066 21.3125923,7.44781334 C21.2940549,7.3684333 21.2864614,7.30935351 21.2850923,7.2818514 L21.2721884,7.02264249 Z M11.2276318,7.56803109 C17.5946836,7.56943938 20.7782919,7.57049658 20.7784568,7.57120269 C20.822021,7.75775221 20.8930747,7.94447943 20.9989255,8.12059983 C21.2544329,8.54572701 21.6654868,8.83312417 22.2412666,8.91490459 C22.2659871,8.98232548 22.2927598,9.05823307 22.3211685,9.14226347 C22.4264522,9.45368374 22.5319418,9.80990716 22.6305003,10.2046606 C23.2267275,12.5927118 23.2971302,15.1113165 22.5061477,17.4594251 C21.5606081,20.2663517 19.4598371,22.5260405 15.9545884,24.0493908 C15.8948662,24.0277526 15.8265579,24.0017634 15.750314,23.9712745 C15.5052316,23.8732693 15.2313539,23.7503223 14.9359168,23.6007991 C14.0901511,23.17275 13.2439552,22.618645 12.4547751,21.9258361 C11.0335404,20.6781562 9.9577324,19.122008 9.36374666,17.222534 C8.64630881,14.9282793 8.66505284,12.2296641 9.55819216,9.08886861 C9.59633108,9.08031316 9.63784198,9.06997887 9.68228189,9.05763924 C9.90709291,8.99521601 10.1319363,8.90026612 10.3433569,8.76511988 C10.7680745,8.49362812 11.0798206,8.09814697 11.2276318,7.56803109 Z M18.5888266,13.1502591 L18.2845909,13.1502591 C18.3148061,12.5419689 18.1804006,11.2176166 16.5352357,10.8497409 C16.0572592,10.7355499 15.5565202,10.758547 15.0911582,10.9160622 C14.4493459,11.1440415 13.6825053,11.7170984 13.654374,13.1502591 L13.4314067,13.1502591 C12.9571546,13.1513984 12.5729823,13.5334935 12.5718367,14.0051813 L12.5718367,17.5803109 C12.5729823,18.0519987 12.9571546,18.4340938 13.4314067,18.4352332 L18.5888266,18.4352332 C19.0630786,18.4340938 19.447251,18.0519987 19.4483965,17.5803109 L19.4483965,14.0051813 C19.447251,13.5334935 19.0630786,13.1513984 18.5888266,13.1502591 Z M16.5831633,17.1917098 L15.43707,17.1917098 L15.7402638,15.6849741 C15.4459283,15.5577945 15.2817475,15.242615 15.3470493,14.9301164 C15.412351,14.6176179 15.6892049,14.3936059 16.0101166,14.3936059 C16.3310283,14.3936059 16.6078822,14.6176179 16.673184,14.9301164 C16.7384858,15.242615 16.5743049,15.5577945 16.2799695,15.6849741 L16.5831633,17.1917098 Z M14.395167,13.1502591 C14.4232984,12.6818653 14.6212599,11.5740933 15.8538312,11.492228 C15.8538312,11.492228 17.4802418,11.4031088 17.4510685,13.1502591 L14.395167,13.1502591 Z"/>
    <filter id="trig-d" width="119.4%" height="117.5%" x="-9.7%" y="-6.2%" filterUnits="objectBoundingBox">
      <feOffset dy=".5" in="SourceAlpha" result="shadowOffsetOuter1"/>
      <feGaussianBlur in="shadowOffsetOuter1" result="shadowBlurOuter1" stdDeviation=".5"/>
      <feColorMatrix in="shadowBlurOuter1" values="0 0 0 0 0   0 0 0 0 0   0 0 0 0 0  0 0 0 0.204257246 0"/>
    </filter>
  </defs>
  <g fill="none" fill-rule="evenodd">
    <use fill="#000" filter="url(#trig-a)" xlink:href="#trig-b"/>
    <use fill="#30C0F2" xlink:href="#trig-b"/>
    <use fill="url(#trig-c)" style="mix-blend-mode:soft-light" xlink:href="#trig-b"/>
    <circle cx="16" cy="15" r="14.5" stroke="#000" stroke-opacity=".097"/>
    <g fill-rule="nonzero">
      <use fill="#000" filter="url(#trig-d)" xlink:href="#trig-e"/>
      <use fill="#FFF" fill-rule="evenodd" xlink:href="#trig-e"/>
    </g>
  </g>
</svg>
